findly-builder/apps/searchassist/src/assets/icons/dashboard/maxFilter.svg

<svg width="14" height="13" viewBox="0 0 14 13" fill="none" xmlns="http://www.w3.org/2000/svg">
<path d="M0.5 13C0.223858 13 -1.95703e-08 12.7761 -4.37114e-08 12.5C-6.78525e-08 12.2239 0.223858 12 0.5 12C0.776142 12 1 12.2239 1 12.5C1 12.7761 0.776142 13 0.5 13ZM10.5 12C10.2239 12 10 11.7761 10 11.5L10 2.95703L8.07838 4.87535C7.88403 5.06937 7.56924 5.06923 7.37505 4.87505C7.18083 4.68083 7.18074 4.36596 7.37486 4.17162L10.1852 1.35813C10.359 1.1841 10.641 1.18402 10.815 1.35795L13.625 4.16796C13.821 4.36397 13.8201 4.68202 13.623 4.87694C13.4275 5.07034 13.1124 5.06947 12.918 4.87499L11 2.95703L11 11.5C11 11.7761 10.7761 12 10.5 12ZM0.5 11C0.223857 11 -1.94416e-07 10.7761 -2.18557e-07 10.5C-2.42698e-07 10.2239 0.223857 10 0.5 10L1.5 10C1.77614 10 2 10.2239 2 10.5C2 10.7761 1.77614 11 1.5 11L0.5 11ZM0.5 9C0.223857 9 -3.69261e-07 8.77614 -3.93402e-07 8.5C-4.17544e-07 8.22386 0.223857 8 0.5 8L2.5 8C2.77614 8 3 8.22386 3 8.5C3 8.77614 2.77614 9 2.5 9L0.5 9ZM0.499999 7C0.223857 7 -5.44107e-07 6.77614 -5.68248e-07 6.5C-5.92389e-07 6.22386 0.223857 6 0.499999 6L3.5 6C3.77614 6 4 6.22386 4 6.5C4 6.77614 3.77614 7 3.5 7L0.499999 7ZM0.499999 5C0.223857 5 -7.18952e-07 4.77614 -7.43094e-07 4.5C-7.67235e-07 4.22386 0.223857 4 0.499999 4L4.5 4C4.77614 4 5 4.22386 5 4.5C5 4.77614 4.77614 5 4.5 5L0.499999 5ZM0.499999 3C0.223857 3 -8.93798e-07 2.77614 -9.17939e-07 2.5C-9.4208e-07 2.22386 0.223857 2 0.499999 2L5.5 2C5.77614 2 6 2.22386 6 2.5C6 2.77614 5.77614 3 5.5 3L0.499999 3ZM0.499999 1C0.223857 1 -1.06864e-06 0.776142 -1.09278e-06 0.5C-1.11693e-06 0.223858 0.223857 -1.95703e-08 0.499999 -4.37114e-08L6.5 -5.68248e-07C6.77614 -5.92389e-07 7 0.223857 7 0.499999C7 0.776142 6.77614 0.999999 6.5 0.999999L0.499999 1Z" fill="#202124"/>
</svg>

<svg width="14" height="13" fill="none" xmlns="http://www.w3.org/2000/svg"><path d="M.5 13a.5.5 0 1 1 0-1 .5.5 0 0 1 0 1Zm10-1a.5.5 0 0 1-.5-.5V2.957L8.078 4.875a.498.498 0 0 1-.703-.703l2.81-2.814a.445.445 0 0 1 .63 0l2.81 2.81a.5.5 0 0 1-.707.707L11 2.957V11.5a.5.5 0 0 1-.5.5Zm-10-1a.5.5 0 0 1 0-1h1a.5.5 0 0 1 0 1h-1Zm0-2a.5.5 0 0 1 0-1h2a.5.5 0 0 1 0 1h-2Zm0-2a.5.5 0 0 1 0-1h3a.5.5 0 0 1 0 1h-3Zm0-2a.5.5 0 0 1 0-1h4a.5.5 0 0 1 0 1h-4Zm0-2a.5.5 0 0 1 0-1h5a.5.5 0 0 1 0 1h-5Zm0-2a.5.5 0 0 1 0-1h6a.5.5 0 0 1 0 1h-6Z" fill="#202124"/></svg>
